!!!!SEGMENT: pl-wtm--r-2029--001_smietanski-emil-wladyslaw--les-adieux-a-cracovie.krn
!!!id: 18xx:1980
!!!COM: Śmietański, Emil Władysław
!!!COM-rism: pe50041781
!!!CDT: 1845-1886
!!!CNT: Polish
!!!OTL: Les Adieux a Cracovie
!!!PDT: 1869
!!!SMS-siglum: PL-Wtm
!!!SMS-shelfmark: R 2029
!!!NIFC-rismID: 1001111523
!!!URL-scan: http://repozytorium.nifc.pl/skany/pl-wtm-nut--r2029
!!!ONB-nifc: UWAGA: utwory w zbiorze: 1. Les Adieux a Cracovie, 2. Guitarre – Mazurka
!!!SMS-variant:
!!!SMS-altvar:
**kern	**kern	**dynam
*part1	*part1	*part1
*staff2	*staff1	*
*I"Fortepian	*I"Fortepian	*
*I'pf	*I'pf	*
*clefF4	*clefG2	*
*k[f#]	*k[f#]	*
*M3/4	*M3/4	*
*>[A,B,B,C,C1,C,C2,D]	*>[A,B,B,C,C1,C,C2,D]	*>[A,B,B,C,C1,C,C2,D]
=1	=1	=1
*>A	*>A	*>A
!	!LO:TX:a:i:t=Mazurka brillante.	!
!	!LO:TX:a:i:t=Les Adieux à Cracovie.	!
4B: 4D: 4GG:/	8.bL 8.g\	.
.	.	p
.	16ccJk 16a\	.
!	!LO:TX:b:i:t=semplice.	!
4g 4d 4B\	4dd 4b\	.
4g 4d\	4dd 4b\	.
=2	=2	=2
4G: 4C#X: 4EE:\	8.cc#XL 8.b-X\	.
.	16gg\Jk	.
4g 4c#X 4B-X\	4g\	.
4c#\	4g\	.
=3	=3	=3
4D 4DD/	8.aL 8.f#\	.
.	16bJk 16g\	.
4f# 4cn 4F#\	4cc 4a\	.
4f# 4c\	4cc 4a\	.
=4	=4	=4
4G 4GG/	8.bL 8.g\	.
.	16dd\Jk	.
4B 4G 4D\	4d\	.
4B 4G\	4d\	.
=5	=5	=5
4C#X 4CC#X/	8.eL 8.B-X/	.
.	16f#/Jk	.
4B-X 4G 4C#/	4g/	.
4B- 4G/	4eM</	.
=6	=6	=6
!	!LO:TX:b:i:t=molto\nrubato	!
4D 4DD/	8.d/L	.
.	16g/Jk	.
(4g 4B\	(4b/	.
8d\)	8dd/)	.
8r	8r	.
!!LO:LB:g=original
=7	=7	=7
4D 4DD/	8d/L	.
.	8f#/J	.
(4f# 4c\	(>4a/	.
8d\)	8dd/)	.
8r	8r	.
=8	=8	=8
4GG\	8d/L	.
.	8g/J	.
(4g 4B\	(>4b/	.
8d\)	8dd/)	.
8r	8r	.
=9	=9	=9
4B 4D 4GG\	8.bL 8.g/	.
.	16ccJk 16a/	.
4g 4d 4B\	4dd 4b/	.
4g 4d\	4dd 4b/	.
=10	=10	=10
4G 4C#X 4EE/	8.cc#XL 8.b-X\	.
.	16gg\Jk	.
4c#X 4B-X\	4g\	.
4c#\	4g\	.
=11	=11	=11
4D 4DD/	8.aL 8.f#/	.
.	16bJk 16g/	.
4f# 4cn 4F#\	4cc 4a/	.
4f# 4c\	4cc 4a/	.
=12	=12	=12
4G 4GG/	8.bL 8.g/	.
.	16dd/Jk	.
4B 4G 4D\	4d/	.
4B 4G\	4d/	.
=13	=13	=13
4C#X 4CC#X/	8eL 8B-X/	.
.	8f#/J	.
!	!LO:TX:b:i:t=espr.	!
4B-X 4C#\	4g/	.
4B- 4G\	4eM</	.
!!LO:LB:g=original
=14	=14	=14
!	!LO:N:vis=8	!
4D 4DD/	8.d/L	.
.	16g/Jk	.
(4g 4B\	(4b/	sf
8d\)	8dd/)	.
8r	8r	.
=15	=15	=15
4DD/	8.d/L	.
.	16f#/Jk	.
(4f# 4c\	(4a/	sf
8d\)	8dd/)	.
8r	8r	.
=16	=16	=16
4B 4D 4GG\	4g\	.
4g 4B\	4gg 4dd\	.
4r	4r	.
=17!|:	=17!|:	=17!|:
*>B	*>B	*>B
4D 4DD/	8.ff#L 8.dd\	f
.	16ff#Jk 16dd\	.
4f# 4d 4F#\	4ff# 4ddM\	.
4r	8eeL 8cc#X\	.
.	8ddJ 8b\	.
=18	=18	=18
4G 4GG\	8.cc#XL 8.a\	.
.	16bJk 16g\	.
4e 4B 4E\	4a#X 4f#\	.
4e 4B 4E\	4b 4g\	.
=19	=19	=19
4AA 4AAA/	8.aL 8.g\	.
.	16a#X\Jk	.
4c#X 4E\	4gg 4b\	.
4g 4c#\	4gg 4cc#X\	.
=20	=20	=20
4D 4DD/	4ff# 4dd\	f
4d 4F#\	(32eeeLLL 32dd'\	.
.	32aa\JJJ)	.
.	16r	.
.	8r	.
*clefG2	*	*
*	*8va	*
4dd 4f#/	(32ddddLLL 32ddd\	.
.	32aaa\JJJ)	.
*	*X8va	*
.	16r	.
.	8r	.
*clefF4	*	*
!!LO:LB:g=original
=21	=21	=21
4D 4DD/	8.ff#L 8.dd\	.
.	16ff#Jk 16dd\	.
4f# 4d 4F#\	4ff# 4ddM\	.
4r	8eeL 8cc#X\	.
.	8ddJ 8b\	.
=22	=22	=22
4G 4GG\	8.cc#XL 8.a\	.
.	16bJk 16g\	.
4e 4B 4E\	4a#X 4f#\	.
4e 4B 4E\	4b 4g\	.
=23	=23	=23
4AA 4AAA/	8aL 8g\	.
.	8a#X\J	.
!	!LO:TX:b:i:t=poco rit.:dur=3q:ext=ut:problem:tekst with extention lines	!
4c#X 4E\	4bb 4gg 4b\	.
4g 4c#\	4gg 4cc\	.
=24	=24	=24
4D 4DD/	4.ff# 4.dd\	.
4f# 4d\	.	.
!	!	!LO:HP:t=dim.
.	8eeL 8cc#X\	>
!	!LO:TX:a:t=♮	!
4r	8ee-X 8ccnM\	.
.	8dd\J	.
=25||	=25||	=25||
4B 4D 4GG\	8.bL 8.g/	.
.	.	p
.	16ccJk 16a/	.
!	!LO:TX:b:i:t=semplice.	!
4g 4B\	4dd 4b/	.
4g 4d\	4dd 4b/	.
=26	=26	=26
4G 4C#X 4EE\	8.cc#XL 8.b-X\	.
.	16gg\Jk	.
4c#X 4B-X\	4g\	.
4c#\	4g\	.
!!LO:LB:g=original
=27	=27	=27
4D 4DD/	8.aL 8.f#/	.
.	16bJk 16g/	.
4f# 4c 4F#\	4cc 4a/	.
4f# 4c\	4cc 4a/	.
=28	=28	=28
4G 4GG/	8.bL 8.g/	.
.	16dd/Jk	.
4B 4D\	4d/	.
4B 4G\	4d/	.
=29	=29	=29
4C#X 4CC#X/	8eL 8B-X/	.
!	!LO:TX:b:i:t=espr.	!
.	8f#/J	.
4B-X 4C#\	4g/	.
4B- 4G\	4eM</	.
=30	=30	=30
!	!LO:TX:b:i:t=molto\nrubato.	!
4D 4DD/	8.d/L	.
.	16g/Jk	.
(4g 4B\	(4b/	.
8d\)	8dd/)	.
8r	8r	.
=31	=31	=31
4D 4DD/	8d/L	.
.	8f#/J	.
(4f# 4c\	(4a/	.
8d\)	8dd/)	.
8r	8r	.
=32	=32	=32
4GG/	8d/L	.
.	8g/J	.
(4g 4B\	(4b/	.
8d\)	8dd/)	.
8r	8r	.
!!LO:LB:g=original
=33	=33	=33
4B 4D 4GG\	8.bL 8.g/	f
.	16ccJk 16a/	.
4g 4d 4B\	4dd 4b/	.
4g 4d\	4dd 4b/	.
=34	=34	=34
4G 4C#X 4EE/	8.cc#XL 8.b-X\	.
.	16gg\Jk	.
4c#X 4B-X\	4g\	.
4c#\	4g\	.
=35	=35	=35
4D 4DD/	8.aL 8.f#/	.
.	16bJk 16g/	.
4f# 4c 4F#\	4cc 4a/	.
4f# 4c\	4cc 4a/	.
=36	=36	=36
4G 4GG\	8.bL 8.g/	.
.	16dd/Jk	.
4B 4D\	4d/	.
4B 4G\	4d/	.
=37	=37	=37
4C#X 4CC#X/	8eL 8B-X/	.
!	!LO:TX:b:i:t=espr.	!
.	8f#/J	.
4B-X 4C#\	4g/	.
4B- 4G\	4eM</	.
=38	=38	=38
4D 4DD/	8.d/L	.
.	16g/Jk	.
(4g 4B\	(>4b/	.
8d\)	8dd/)	.
8r	8r	.
!!LO:LB:g=original
=39	=39	=39
4D 4DD\	8d/L	.
.	8f#/J	.
(4f# 4c\	(4a/	.
8d\)	8dd/)	.
8r	8r	.
=40	=40	=40
4B 4D 4GG\	4g\	.
8g 8B\	8gg 8dd\	.
8r	8r	.
!	!LO:TX:b:i:t=La repetizione\nad libitum.	!
4r	4r	.
!!LO:PB:g=original
=41:|!	=41:|!	=41:|!
*>C	*>C	*>C
*k[]	*k[]	*
*	*^	*
!	!	!LO:TX:a:i:t=Con molto brio.	!
4GG 4CC\	4r	4E</	fff
4G 4E\	2ryy	4cc 4g 4c\	.
4e 4G\	.	4cc 4g 4c\	.
*	*v	*v	*
=42	=42	=42
4e 4G\	8ccL 8g 8c\	.
.	8ccJ 8g 8c\	.
4G 4E\	4cc 4g 4c\	.
4e 4G\	4cc 4g 4c\	.
=43	=43	=43
!	!LO:TX:b:i:t=marcatissomo il thema.	!
8.AL 8.C 8.FF\	4r	.
16B\Jk	.	.
4cM\	4cc 4f 4A/	.
8B\L	4cc 4f/	.
8A\J	.	.
=44	=44	=44
8.GL 8.C\	4r	.
16e\Jk	.	.
*2\right	*2\right	*
2c 2G\	2cc 2e\	.
=45	=45	=45
4E 4GG 4CC/	4r	.
4G 4E\	4cc 4g 4c\	.
4e 4G\	4cc 4g 4c\	.
=46	=46	=46
4e 4G\	8ccL 8g 8c\	.
.	8ccJ 8g 8c\	.
4G 4E\	4cc 4g 4c\	.
4e 4G\	4cc 4g 4c\	.
=47	=47	=47
8.DL 8.GG/	4r	.
16E/Jk	.	.
4FM</	4g 4B/	.
8E/L	4g 4B/	.
8D/J	.	.
!!LO:LB:g=original
=48	=48	=48
8CL 8CC\	4c< 4E</	.
8BB\J	.	.
4C\	4c< 4E</	.
4GG\	4c< 4E</	.
=49	=49	=49
4E 4GG 4CC/	4r	.
4G 4E\	4cc 4g 4c\	.
4e 4G\	4cc 4g 4c\	.
=50	=50	=50
4e 4G\	8ccL 8g 8c\	.
.	8ccJ 8g 8c\	.
4G 4E\	4cc 4g 4c\	.
4e 4G\	4cc 4g 4c\	.
=51	=51	=51
!LO:N:vis=8	!	!
8.AL 8.C 8.FF\	4r	.
16B\Jk	.	.
4cM\	4cc 4f 4A\	.
8B\L	4cc 4f\	.
8A\J	.	.
=52	=52	=52
8.GL 8.C\	4r	.
16e\Jk	.	.
2c 2G\	2cc 2e\	.
=53	=53	=53
4E 4GG 4CC/	4r	.
4G 4E\	4cc 4g 4c\	.
4e 4G\	4cc 4g 4c\	.
=54	=54	=54
4e 4G\	8ccL 8g 8c\	.
.	8ccJ 8g 8c\	.
4G 4E\	4cc 4g 4c\	.
4e 4G\	4cc 4g 4c\	.
!!LO:LB:g=original
=55	=55	=55
!LO:N:vis=8	!	!
8.BL 8.D^^\	4r	.
16A#X^^\Jk	.	.
8B^^\L	4b 4d#X 4A/	.
!LO:TX:i:t=rallent.	!	!
8A#^^\	.	.
8G^^\	4b 4d# 4A/	.
8F^^\J	.	.
=56	=56	=56
!LO:N:vis=8	!	!
8.EL 8.BB 8.EEm\	4r	.
16D#X\Jk	.	.
2E\	2e 2B 2G/	.
=57||	=57||	=57||
4c 4AA\	4eee 4ccc\	pp
*clefG2	*Xtuplet	*
4a 4c/	(28cc\LL	.
.	28ee\	.
.	28aa\	.
.	28ccc\	.
*	*8va	*
.	28eee\	.
.	28aaa\	.
.	28cccc\JJ)	.
4ee 4e\	8eeee\	.
*	*X8va	*
.	8r	.
*clefF4	*	*
=58	=58	=58
4B 4BB\	4bb 4gg\	.
*clefG2	*	*
4g 4B/	(28g\LL	.
.	28b\	.
.	28ee\	.
.	28gg\	.
.	28bb\	.
.	28eee\	.
.	28ggg\JJ)	.
*	*8va	*
4b 4e/	8bbb\	.
*	*X8va	*
.	8r	.
*clefF4	*	*
=59	=59	=59
4BB\	8.ff#X\L	.
.	16gg\Jk	.
*clefG2	*	*
4b 4d#X 4A/	4aa\	.
4dd#X 4b 4d#/	4bb\	.
*clefF4	*	*
=60	=60	=60
4EE/	8.ggM\L	.
.	16ff#X\Jk	.
4D 4GG 4BBB/	4ee\	.
4D 4GG/	4ee\	.
!!LO:LB:g=original
=61	=61	=61
4c 4AA\	4eee 4ccc\	.
*clefG2	*	*
4a 4c/	(28cc\LL	.
.	28ee\	.
.	28aa\	.
.	28ccc\	.
*	*8va	*
.	28eee\	.
.	28aaa\	.
.	28cccc\JJ)	.
4ee 4e/	8eeee\	.
*	*X8va	*
.	8r	.
*clefF4	*	*
=62	=62	=62
4B 4BB\	4bb 4gg\	.
*clefG2	*	*
4g 4B/	(28g\LL	.
.	28b\	.
.	28ee\	.
.	28gg\	.
.	28bb\	.
.	28eee\	.
.	28ggg\JJ)	.
4b 4e/	4bbb\	.
*clefF4	*	*
=63	=63	=63
!	!LO:TX:b:i:t=riten.:dur=3q:ext=ut:problem:tekst with extention lines	!
4BB\	2.bbtt\	.
*clefG2	*	*
4gg 4dd#X 4a\	.	.
4ff#X 4dd# 4a\	.	.
=64	=64	=64
!LO:TX:b:t=Imo.:problem:między pięcioliniami	!	!
*>C1	*>C1	*>C1
4ee 4g 4B 4E/	2.eeett\	.
4r	.	.
4r;	.	.
.	64qqddd#X\LLLL	.
.	64qqdddn\	.
.	64qqccc#X\	.
.	64qqcccn\	.
.	64qqbb\	.
.	64qqaa#X\	.
.	64qqaan\	.
.	64qqgg#X\	.
.	64qqggn\	.
.	64qqff#X\	.
.	64qqffn\	.
.	64qqee\	.
.	64qqdd#X\	.
.	64qqddn\	.
.	64qqcc#X\	.
.	64qqccn\	.
.	64qqb\	.
.	64qqa#X\	.
.	64qqan\	.
.	64qqg#X\	.
.	64qqgn\	.
.	64qqf#X\	.
.	64qqfn\	.
.	64qqe\	.
.	64qqd#X\	.
.	64qqdn\	.
.	64qqc#X\	.
.	64qqcn\	.
.	64qqB\	.
.	64qqA#X\	.
.	64qqAn\	.
.	64qqG#X\	.
.	64qqGn\	.
.	64qqF#X\	.
.	64qqFn\JJJJ	.
!!LO:LB:g=original
=65:|!	=65:|!	=65:|!
!LO:TX:a:t=2°.:problem:między pięcioliniami	!	!
*>C2	*>C2	*>C2
4ee 4g 4B 4E/	2eeett\	.
4r	.	.
4r;	16ddd#X\LL	.
.	16eee\JJ	.
*	*8va	*
!	!LO:N:vis=32	!
!	!	!
.	8eeee'\	.
.	128qqdddd#X\LLLLL	.
.	128qqddddn\	.
.	128qqcccc#X\	.
.	128qqccccn\	.
.	128qqbbb\	.
.	128qqaaa#X\	.
.	128qqaaan\	.
.	128qqggg#X\	.
.	128qqgggn\	.
*	*X8va	*
.	128qqfff#X\	.
.	128qqfffn\	.
.	128qqeee\	.
.	128qqddd#\	.
.	128qqdddn\	.
.	128qqccc#X\	.
.	128qqcccn\	.
.	128qqbb\	.
.	128qqaa#X\	.
.	128qqaan\	.
.	128qqgg#X\	.
.	128qqggn\	.
.	128qqff#X\	.
.	128qqffn\	.
.	128qqee\	.
.	128qqdd#X\	.
.	128qqddn\	.
.	128qqcc#X\	.
.	128qqccn\	.
.	128qqb\	.
.	128qqa#X\	.
.	128qqan\	.
.	128qqg#X\	.
.	128qqgn\	.
.	128qqf#X\	.
.	128qqfn\	.
.	128qqe\	.
.	128qqd#X\	.
.	128qqdn\	.
.	128qqc#X\	.
.	128qqcn\	.
.	128qqB\	.
.	128qqA#X\	.
.	128qqAn\	.
.	128qqG#X\	.
.	128qqGn\	.
.	128qqF#X\	.
.	128qqFn\JJJJJ	.
!LO:CL:ed	!	!
*clefF4	*	*
=66||	=66||	=66||
*>D	*>D	*>D
!	!LO:TX:a:i:t=Con molto brio.	!
4GG 4CC\	4E</	fff
4G 4E\	4cc 4g 4c\	.
4e 4G\	4cc 4g 4c\	.
=67	=67	=67
4e 4G\	8ccL 8g 8c\	.
.	8ccJ 8g 8c\	.
4G 4E\	4cc 4g 4c\	.
4e 4G\	4cc 4g 4c\	.
!!LO:LB:g=original
=68	=68	=68
*clefF4	*	*
!LO:N:vis=8	!	!
8.AL 8.C 8.FF\	4r	.
16B\Jk	.	.
4cM\	4cc 4f 4A/	.
8B\L	4cc 4f/	.
8A\J	.	.
=69	=69	=69
8.GL 8.C\	4r	.
16e\Jk	.	.
2c 2G\	2cc 2e/	.
=70	=70	=70
4E 4GG 4CC/	4r	.
4G 4E\	4cc 4g 4c/	.
4e 4G\	4cc 4g 4c/	.
=71	=71	=71
4e 4G\	8ccL 8g 8c/	.
.	8ccJ 8g 8c/	.
4G 4E\	4cc 4g 4c/	.
4e 4G\	4cc 4g 4c/	.
=72	=72	=72
8.DL 8.GG/	4r	.
16E/Jk	.	.
4FM</	4g 4B/	.
8E/L	4g 4B/	.
8D/J	.	.
=73	=73	=73
8.CL 8.CC\	4c< 4E</	.
16BB\Jk	.	.
4C\	4c< 4E</	.
4GG\	4c< 4E</	.
=74	=74	=74
4CC 4CCC/	4r	.
4G 4E\	4cc 4g 4c/	.
4e 4G\	4cc 4g 4c/	.
=75	=75	=75
4e 4G\	8ccL 8g 8c/	.
.	8ccJ 8g 8c/	.
4G 4E\	4cc 4g 4c/	.
4e 4G\	4cc 4g 4c/	.
!!LO:LB:g=original
=76	=76	=76
8.AL 8.C 8.FF\	4r	.
16B\Jk	.	.
4cM\	4cc 4f 4A/	.
8B\L	4cc 4f/	.
8A\J	.	.
=77	=77	=77
8.GL 8.C\	4r	.
16e\Jk	.	.
2c 2G\	2cc 2e/	.
=78	=78	=78
4E 4GG 4CC\	4r	.
4G 4E\	4cc 4g 4c/	.
4e 4G\	4cc 4g 4c/	.
=79	=79	=79
4e 4G\	8ccL 8g 8c/	.
.	8ccJ 8g 8c/	.
4G 4E\	4cc 4g 4c/	.
4e 4G\	4cc 4g 4c/	.
=80	=80	=80
!LO:N:vis=8	!	!
8.DL 8.GG/	4r	.
16E/Jk	.	.
4FM</	4g 4B/	.
8E/L	4g 4B/	.
8D/J	.	.
=81	=81	=81
8.CL 8.CC\	4r	.
16GG\Jk	.	.
2CC;\	2c 2E;/	.
!!LO:PB:g=original
=82||	=82||	=82||
*k[f#]	*k[f#]	*
4GG\	8.bL 8.g/	.
!	!LO:TX:b:i:t=semplice.	!
.	16ccJk 16a/	.
4g 4B\	4dd 4b/	.
4g 4d\	4dd 4b/	.
=83	=83	=83
4G 4C#X 4EE\	8.cc#XL 8.b-X\	.
.	16gg\Jk	.
4c#X 4B-X\	4g\	.
4c#\	4g\	.
=84	=84	=84
4D 4DD/	8.aL 8.f#/	.
.	16bJk 16g/	.
4f# 4cn 4F#\	4cc 4a/	.
4f# 4c\	4cc 4a/	.
=85	=85	=85
4G 4GG\	8.bL 8.g/	.
.	16dd/Jk	.
4B 4G 4D\	4d/	.
4B 4G\	4d/	.
=86	=86	=86
4C#X 4CC#X/	8.eL 8.B-X/	.
!	!LO:TX:b:i:t=espr.	!
.	16f#/Jk	.
4B-X 4G 4C#/	4g/	.
4B- 4G/	4eM</	.
=87	=87	=87
4D 4DD/	8d/L	<
.	8g/J	.
(4g 4B\	(4b/	[ >
8d\)	8dd/)	.
8r	8r	]
=88	=88	=88
4D 4DD/	8d/L	<
.	8f#/J	.
(4f# 4c\	(4a/	[ >
8d\)	8dd/)	.
8r	8r	]
!!LO:LB:g=original
=89	=89	=89
4GG\	8d/L	<
.	8g/J	.
(4g 4B\	(4b/	[ >
8d\)	8dd/)	.
8r	8r	]
=90	=90	=90
4B 4D 4GG\	8.bL 8.g\	.
.	16ccJk 16a\	f
4g 4B\	4dd 4b\	.
4g 4d\	4dd 4b\	.
=91	=91	=91
4G 4C#X 4EE\	8.cc#XL 8.b-X\	.
.	16gg\Jk	.
!LO:SIC:v:n=2s=4B-	!	!
4c#X 4B\	4g\	.
4c#\	4g\	.
=92	=92	=92
4D 4DD\	8.aL 8.f#/	.
.	16bJk 16g/	.
4f# 4cn 4F#\	4cc 4a/	.
4f# 4c\	4cc 4a/	.
=93	=93	=93
4G 4GG\	8.bL 8.g/	.
.	16dd/Jk	.
4B 4G 4D\	4d/	.
4B 4G\	4d/	.
=94	=94	=94
4C#X 4CC#X\	8eL 8B-X/	.
.	8f#/J	.
4B-X 4C#\	4g/	.
4B- 4G\	4eM</	.
=95	=95	=95
4D 4DD/	8.d/L	<
.	16g/Jk	.
(4g 4B\	(4b/	[ >
8d\)	8dd/)	.
8r	8r	]
!!LO:LB:g=original
=96	=96	=96
4DD/	8d/L	<
.	8f#/J	.
(4f# 4c\	(4a/	[ >
8d\)	8dd/)	.
8r	8r	]
=97	=97	=97
4B 4D 4GG\	4g/	.
4g 4B\	4gg 4dd\	.
4r	4r	.
=98||	=98||	=98||
!	!	!LO:DY:t=f
4D 4DD/	8.ff#L 8.dd\	f
.	16ff#Jk 16dd\	.
4f# 4d 4F#\	4ff# 4ddM\	.
4r	8eeL 8cc#X\	.
.	8ddJ 8b\	.
=99	=99	=99
!	!LO:N:vis=8	!
4G 4GG\	8.cc#XL 8.a\	.
.	16bJk 16g\	.
4e 4B 4E\	4a#X 4f#\	.
4e 4B 4E\	4b 4g\	.
=100	=100	=100
4AA 4AAA/	8aL 8g\	ff
.	8a#X\J	.
4c#X 4E\	4gg 4b\	.
4g 4c#\	4gg 4cc#X\	.
=101	=101	=101
4D 4DD/	4ff# 4dd\	.
4d 4F#\	(32dddLLL 32dd\	.
.	32aa\JJJ)	.
.	16r	.
.	8r	.
*clefG2	*	*
*	*8va	*
4dd 4f#\	(32ddddLLL 32ddd\	.
.	32aaa\JJJ)	.
*	*X8va	*
.	16r	.
.	8r	.
*clefF4	*	*
=102	=102	=102
4D 4DD/	8.ff#L 8.dd\	.
.	16ff#Jk 16dd\	.
4f# 4d 4F#\	4ff# 4ddM\	.
4r	8eeL 8cc\	.
.	8ddJ 8b\	.
!!LO:LB:g=original
=103	=103	=103
4G 4GG\	8.cc#XL 8.a\	.
.	16bJk 16g\	.
4e 4B 4E\	4a#X 4f#\	.
4e 4B 4E\	4b 4g\	.
=104	=104	=104
4AA 4AAA/	8aL 8g\	.
.	8a#X\J	.
!	!LO:TX:b:i:t=rit.:dur=3q:ext=ut:problem:tekst with extention lines	!
4c#X 4E\	4bb 4gg 4b\	.
4g 4c#\	4gg 4cc\	.
=105	=105	=105
4D 4DD/	4ff# 4dd\	.
*	*8va	*
!	!LO:TX:b:i:t=prestissimo.	!
!	!LO:N:vis=16	!
4a 4d 4c 4F#\	2eeee 2cccc\	.
*	*X8va	*
4r;	.	.
*	*8va	*
.	64qqeeee-XLLL 64qqcccc\	.
.	64qqdddd 64qqbbb\	.
.	64qqcccc#X 64qqaaa#X\	.
.	64qqccccn 64qqaaan\	.
.	64qqbbb 64qqggg#X\	.
.	64qqbbb-X 64qqgggn\	.
.	64qqaaa 64qqfff#\	.
.	64qqggg#X 64qqeee#X\	.
.	64qqgggn 64qqeeen\	.
*	*X8va	*
.	64qqfff# 64qqddd#X\	.
.	64qqfffn 64qqdddn\	.
.	64qqeeeny 64qqccc#X\	.
.	64qqeee-X 64qqcccn\	.
.	64qqddd 64qqbbny\	.
.	64qqccc#X 64qqaa#X\	.
.	64qqcccn 64qqaan\	.
.	64qqbb 64qqgg#X\	.
.	64qqbb-X 64qqggn\	.
.	64qqaa 64qqff#\	.
.	64qqgg#X 64qqee#X\	.
.	64qqggn 64qqeen\	.
.	64qqff# 64qqdd#X\	.
.	64qqffn 64qqddn\	.
.	64qqee 64qqcc#X\	.
.	64qqee-X 64qqccn\	.
.	64qqdd 64qqb\	.
.	64qqcc#X 64qqa#X\	.
.	64qqccnJJJ 64qqan\	.
=106||	=106||	=106||
4B 4D 4GG\	8.bL 8.g/	.
.	16ccJk 16a/	.
4g 4d 4B\	4dd 4b/	.
4g 4d\	4dd 4b/	.
!!LO:LB:g=original
=107	=107	=107
4G 4C#X 4EE\	(20ccLL 20b-X\	.
.	20gg\	.
.	20cc\	.
.	20e\	.
.	20cc\	.
4g 4B-X\	20gg\	.
.	20gg\	.
.	20ccc\	.
.	20ggg\	.
.	20ggg\JJ)	.
*	*8va	*
16g 16c\	16gggg\	.
*	*X8va	*
16r	16r	.
8r	8r	.
=108	=108	=108
4D 4DD/	8.aL 8.f#/	.
.	16bJk 16g/	.
4f# 4cn 4F#\	4cc 4a/	.
4f# 4c\	4cc 4a/	.
=109	=109	=109
4G 4GG\	(20bLL 20g/	.
.	20dd/	.
.	20g/	.
.	20B/	.
.	20g/	.
4B 4D\	20dd/	.
.	20dd/	.
.	20gg/	.
.	20ddd/	.
.	20ddd/JJ)	.
*	*8va	*
16g\	16dddd\	.
*	*X8va	*
16r	16r	.
8r	8r	.
=110	=110	=110
4C#X 4CC#X/	8.e/L	.
.	16f#/Jk	.
4B-X 4G 4C#\	4g/	.
4B- 4G\	4eM</	.
=111	=111	=111
4D 4DD/	8.d/L	.
.	16g/Jk	.
*	*tuplet	*
!	!LO:TUP:b:t=P:problem:klamra łukowa	!
(4d 4D\	12B/L	.
.	12g/	.
.	12dd/J	.
16g'\)	16ddd\	.
!	!LO:TX:b:i:t=lusingando.	!
16r	16r	.
8r	8r	.
=112	=112	=112
!	!LO:N:vis=8	!
4D 4DD/	8.d/L	.
.	16a/Jk	.
!	!LO:TUP:b:t=P:problem:klamra łukowa	!
4f# 4D\	12c/L	.
.	12a/	.
.	12dd/J	.
16a\	16ddd/	.
16r	16r	.
8r	8r	.
!!LO:LB:g=original
=113	=113	=113
4GG\	8.d/L	.
.	16b/Jk	.
!	!LO:TUP:b:t=P:problem:klamra łukowa	!
4g 4D\	12B/L	.
.	12b/	.
.	12dd/J	.
16b\	16ddd/	.
16r	16r	.
8r	8r	.
=114	=114	=114
4B 4D 4GG\	8.bL 8.g/	.
.	16ccJk 16a/	.
4g 4d 4B\	4dd 4b/	.
4g 4d\	4dd 4b/	.
=115	=115	=115
*	*Xtuplet	*
4G 4C#X 4EE\	(20ccLL 20b-X\	.
.	20gg\	.
.	20cc\	.
.	20e\	.
.	20cc\	.
4g 4B-X\	20gg\	.
.	20gg\	.
.	20ccc\	.
.	20ggg\	.
.	20ggg\JJ)	.
*	*8va	*
16g 16c\	16gggg\	.
*	*X8va	*
16r	16r	.
8r	8r	.
=116	=116	=116
4D 4DD/	8.aL 8.f#/	.
.	16bJk 16g/	.
4f# 4cn 4F#\	4cc 4a/	.
4f# 4c\	4cc 4a/	.
=117	=117	=117
4G 4GG/	(20bLL 20g/	.
.	20dd/	.
.	20g/	.
.	20B/	.
.	20g/	.
4B 4D\	20dd/	.
.	20dd/	.
.	20gg/	.
.	20ddd/	.
.	20ddd/JJ)	.
*	*8va	*
16g\	16dddd\	.
*	*X8va	*
16r	16r	.
8r	8r	.
=118	=118	=118
4C#X 4CC#X/	8d/L	.
.	8f#/J	.
4B-X 4G 4C#X\	4g/	.
4B- 4G\	4eM</	.
!!LO:LB:g=original
=119	=119	=119
4D 4DD\	8.d/L	p
.	16g/Jk	.
*	*tuplet	*
!	!LO:TUP:b:t=P:problem:klamra łukowa	!
4d 4D\	12B/L	.
.	12g/	.
.	12dd/J	.
16g\	16ddd/	.
16r	16r	.
8r	8r	.
=120	=120	=120
4D 4DD\	8.d/L	pp
.	16g/Jk	.
!	!LO:TUP:b:t=P:problem:klamra łukowa	!
4f#: 4e-X: 4D:\	12c/L	.
.	12b/	.
.	12dd/J	.
16a 16d\	16ddd/	.
16r	16r	.
8r	8r	.
=121	=121	=121
8.GL 8.D 8.BB\	8.gL 8.d 8.B/	.
16F#\Jk	16f#/Jk	.
4G\	4g/	.
4G\	4g/	.
=122	=122	=122
4C 4CC\	4gg 4ee-X\	f
*	*Xtuplet	*
4c 4E-X\	(28e-X/LL	.
.	28g/	.
.	28cc/	.
.	28ee-X/	.
.	28gg/	.
.	28ccc/	.
.	28eee-X/JJ)	.
16g 16G\	16ggg\	.
16r	16r	.
8r	8r	.
=123	=123	=123
4D 4DD\	4dd 4b\	f
4B 4D\	(28B\LL	.
.	28d\	.
.	28g\	.
.	28b\	.
.	28dd\	.
.	28gg\	.
.	28bb\JJ)	.
4d 4G\	16ddd\	.
.	16r	.
.	8r	.
!!LO:PB:g=original
=124	=124	=124
!LO:TX:a:i:t=poco\nrall.	!	!
4D 4DD\	8.d/L	pp
.	16b/Jk	.
4f#: 4e-X: 4D:\	(12c/L	.
.	12b/	.
.	12dd/J	.
4a 4d\	16ddd/)	.
.	16r	.
.	8r	.
=125	=125	=125
!LO:TX:a:i:t=à tempo	!LO:N:vis=8	!
8.GL 8.D 8.GG\	8.gL 8.d 8.B/	.
16F#\Jk	16f#/Jk	.
4G\	4g/	.
4G\	4g/	.
=126	=126	=126
4C 4CC/	4gg 4ee-X\	f
4c 4E-X\	(28e-X\LL	.
.	28g\	.
.	28cc\	.
.	28ee-X\	.
.	28gg\	.
.	28ccc\	.
.	28eee-X\JJ	.
16g 16G\	16ggg\)	.
16r	16r	.
8r	8r	.
=127	=127	=127
4D 4DD/	4dd 4b\	f
4B 4D\	(28B/LL	.
.	28d/	.
.	28g/	.
.	28b/	.
.	28dd/	.
.	28gg/	.
.	28bb/JJ)	.
16d 16G\	16ddd\	.
16r	16r	.
8r	8r	.
=128	=128	=128
!LO:TX:a:i:t=poco\nrall.	!	!
4DD/	8.d/L	pp
.	16b/Jk	.
4f#: 4e-X: 4D:\	12c\L	.
.	12b\	.
.	12dd\J	.
16a 16d\	16ddd\	.
16r	16r	.
8r	8r	.
!!LO:LB:g=original
=129	=129	=129
8.GL 8.D 8.GG\	8.gL 8.d 8.B/	.
16F#\Jk	16f#/Jk	.
4G\	4g/	.
!	!LO:TX:b:t=cresc_:ext=ud:problem:dynamics with extention lines	!LO:HP:t=cresc
4G 4E-X 4C\	4g 4e-X 4c/	<
=130	=130	=130
!LO:N:vis=8	!	!
8.GL 8.D 8.GG\	8.ggL 8.dd 8.b\	.
16f#\Jk	16ff#\Jk	.
4g\	4gg\	.
4g 4e-X 4c\	4gg 4ee-X 4cc\	[
=131	=131	=131
!	!	!LO:DY:t=p
4g 4d 4G\	4ddd 4gg 4b\	p
4D 4GG/	12gL 12B/	.
!	!LO:TX:b:i:t=non legato.	!
.	12a 12d/	.
.	12dd 12b/	.
4B 4D/	12dd 12b/	.
.	12a 12d/	.
.	12ggJ 12b/	.
*clefG2	*	*
=132	=132	=132
4g 4B/	12ggL 12b\	.
.	12aa 12dd\	.
.	12ddd 12bb\	.
4b 4d/	12ddd 12bb\	.
.	12aa 12dd\	.
.	12ggg 12bb\	.
4gg 4b/	12ggg 12bb\	pp
.	12aaa 12ddd\	.
*	*8va	*
.	12ddddJ 12bbb\	.
=133	=133	=133
4bb 4gg\	4gggg 4bbb\	.
*	*X8va	*
4r	4r	.
4r	4r	.
=134	=134	=134
4b 4g 4B/	4ggg 4bb 4gg\	p
4r	4r	.
4r	4r	.
*clefF4	*	*
=135	=135	=135
32qqB 32qqD 32qqGG;\	32qqgg 32qqb 32qqg;\	ff
2GG 2GGG;/	2G;/	.
!	!LO:TX:b:i:t=Fine.	!
4ryy	4ryy	.
==	==	==
*-	*-	*-
!!!system-decoration: {(s1,s2)}
!!!RDF**kern: > = above
!!!RDF**kern: < = below
!!!RDF**dynam: p = "p."
!!!RDF**dynam: f = "f."
!!!RDF**dynam: fff = "fff."
!!!RDF**dynam: sf = "sf."
!!!ENC: Marta Lawrence
!!!END: 2021-05-23
!!!ENC: Anastazja Marusiak
!!!END: 2021-05-06
